X:017 
T:Bogan's (reel)
S:Donnelly < Jones
F:file ID: cre.4/017bogan
B:CRE4.107 (RÃÂÃÂÃÂÃÂ­l UÃÂÃÂÃÂÃÂ­ BhogÃÂÃÂÃÂÃÂ¡in)
N:Source /(3GFE DF/ replaced by /FEFG/ in mm 1 and 5
L:1/8
Q:180
M:4/4
R:reel
K:D
A|D3E FEFG|AFBF ABde|faef dBB/A/B|AF~F2 EDB,A,|
D3E FEFG|AFBF ABde|faef dfBd|AFEG FDD ||
B|defg agab|afdf edBc|defg afbf|afeg fddA|
defg af~f2|gefd edBd|gfge fagf|egfe dBAF |\
"last time"D8|]

%%%

